X: 1203
T: BONNIE BREAST KNOTS
B: Oliver Ditson "The Boston Collection of Instrumental Music" 1910 p.120 #3
F: http://conquest.imslp.info/files/imglnks/usimg/8/8f/IMSLP175643-PMLP309456-bostoncollection00bost_bw.pdf
%: 2012 John Chambers <jc:trillian.mit.edu>
M: 2/4
L: 1/16
K: A
[|\
A3B ce3 | d3e fa3 | e3c A3c | B4 e4 |\
A3B ce3 | d3e f2ga | e3c Be3 | A6 H|]
A2 |\
A3G A2F2 | Ec3 A4 | A3G A2F2 | Ec3 A3B |\
c3c c3c | ca3 f3e | ^dB3 c3d | e2fe "^da Capo"dcdB |]
%%begintext align
Ladies balance to the right and swing.
Balance to the next, &c.
All promenade.
Gentlemen the same.
%%endtext

%%sep 1 1 500
%%sep 1 1 500
